X: 1
T: Is Bridget Mary
M: 4/4
L: 1/8
R: reel
K: Emin
E2EF GEBd|E2EF GEFA|E2EF GEB2|ABcA dBce|
E2EF GEBd|E2EF GEFA|E2EF GEB2|ABcA dBgf||
e2ef geab|e2ef gefa|e2ef gea2|bgaf gefa|
e2ef geab|e2ef gefa|e2ef gea2|bgaf gdBG||
